X:14895
T:Saxon Waltz. TLY.030
M:3/4
L:1/8
Q:130
S:Wm.Tildesley,Swinton,Lancs.1860s.
R:Waltz
O:England.
A:Lancashire.
H:1860.
Z:vmp.Taz Tarry.
K:C
e2|(fec)(agf)|e-G c3 e|d-G B3G|e-G c3e|!
(fec)(agf)|e-G c3 e|d-G B3d|c4:||:c-e|d-G B3G|e-G c3G|!
d-G B3G|e-G c3e|(fec)(agf)|e-G c3 e|d-G B3d|c4:|]
